img/course_teachers-pattern_right.svg

<svg width="372" height="218" viewBox="0 0 372 218" fill="none" xmlns="http://www.w3.org/2000/svg">
<g clip-path="url(#clip0)">
<path d="M288.055 145.673H208.579C204.633 145.663 200.852 144.085 198.066 141.284C195.28 138.484 193.717 134.691 193.719 130.736V110.097C193.721 108.062 194.141 106.048 194.953 104.182C195.764 102.316 196.949 100.636 198.435 99.248L198.532 99.1579C200.078 97.7742 201.875 96.7028 203.826 96.0023L204.073 95.8971C205.528 95.4326 207.045 95.1969 208.572 95.1983H235.803C242.564 95.2003 249.152 93.0597 254.625 89.0827C260.098 85.1058 264.175 79.4963 266.274 73.0566C266.439 72.5318 266.744 72.0623 267.156 71.6993C267.569 71.3363 268.073 71.0937 268.613 70.9979C268.693 70.9905 268.773 70.9905 268.853 70.9979H269.146C269.596 70.9995 270.04 71.099 270.448 71.2897C270.856 71.4804 271.217 71.7577 271.507 72.1024L299.654 107.34C301.791 110.001 302.955 113.315 302.953 116.732V130.736C302.954 132.698 302.569 134.64 301.821 136.452C301.073 138.264 299.976 139.911 298.592 141.298C297.209 142.685 295.566 143.785 293.758 144.536C291.95 145.286 290.012 145.673 288.055 145.673ZM199.664 123.734V130.736C199.662 133.1 200.596 135.367 202.26 137.042C203.924 138.717 206.183 139.662 208.542 139.67H288.055C290.415 139.664 292.677 138.72 294.344 137.045C296.011 135.371 296.947 133.102 296.947 130.736V116.717C296.92 114.671 296.213 112.694 294.938 111.097L269.963 79.8186C266.84 86.2377 261.978 91.6466 255.932 95.4267C249.886 99.2067 242.9 101.205 235.773 101.194C235.466 101.194 235.189 101.194 234.844 101.194C234.711 101.203 234.579 101.203 234.446 101.194H208.542C207.682 101.2 206.826 101.324 206 101.562C204.706 102.012 203.513 102.714 202.491 103.628C201.6 104.453 200.889 105.453 200.402 106.566C199.916 107.68 199.665 108.882 199.664 110.097V122.998C199.686 123.104 199.699 123.212 199.702 123.321C199.704 123.459 199.691 123.598 199.664 123.734Z" fill="#EAEAEA" fill-opacity="0.2"/>
<path d="M225.492 84.3597C218.883 84.3711 212.538 81.771 207.839 77.126C203.14 72.4809 200.469 66.1676 200.406 59.5618V59.0889C200.434 54.0497 201.984 49.1362 204.852 44.9922C207.72 40.8481 211.774 37.6666 216.482 35.8643C221.189 34.062 226.332 33.723 231.235 34.8916C236.139 36.0601 240.576 38.6819 243.964 42.4134C244.082 42.5148 244.141 42.5992 244.124 42.5992L244.268 42.7765L244.344 42.8694L244.437 42.9707L245.864 44.786C245.981 44.887 246.083 45.0034 246.168 45.1322C248.751 48.8961 250.257 53.2937 250.522 57.8504C250.788 62.4071 249.804 66.9498 247.676 70.9882C245.547 75.0266 242.356 78.4072 238.447 80.7652C234.537 83.1232 230.058 84.369 225.492 84.3682V84.3597ZM239.006 46.9644C236.527 44.2479 233.287 42.3399 229.709 41.4884C226.131 40.637 222.379 40.8815 218.942 42.1903C215.504 43.499 212.54 45.8113 210.435 48.8266C208.33 51.8419 207.181 55.4206 207.138 59.0974V59.4942C207.261 64.2921 209.259 68.8509 212.705 72.193C216.15 75.5352 220.769 77.3945 225.57 77.3725C230.371 77.3504 234.972 75.4485 238.387 72.0748C241.802 68.7011 243.758 64.1241 243.837 59.3254C243.838 55.6613 242.731 52.0825 240.661 49.0583L239.141 47.1501L239.023 46.9728L239.006 46.9644Z" fill="#EAEAEA" fill-opacity="0.2"/>
<path d="M86.0076 3L165.483 3C169.429 3.00995 173.21 4.58824 175.996 7.38851C178.782 10.1888 180.346 13.9823 180.344 17.9365V38.5756C180.341 40.6112 179.921 42.6246 179.11 44.4909C178.299 46.3572 177.113 48.0365 175.628 49.4248L175.53 49.515C173.985 50.8986 172.188 51.9701 170.237 52.6706L169.989 52.7758C168.535 53.2402 167.017 53.4759 165.491 53.4745L138.259 53.4745C131.499 53.4726 124.911 55.6132 119.438 59.5901C113.965 63.567 109.887 69.1766 107.788 75.6163C107.624 76.1411 107.319 76.6106 106.906 76.9736C106.494 77.3366 105.99 77.5792 105.449 77.6749C105.369 77.6823 105.289 77.6823 105.209 77.6749H104.917C104.467 77.6734 104.022 77.5738 103.615 77.3831C103.207 77.1924 102.845 76.9151 102.555 76.5704L74.4086 41.333C72.2716 38.6714 71.1075 35.3574 71.1096 31.9413V17.9365C71.1086 15.9753 71.4932 14.0332 72.2415 12.2211C72.9897 10.409 74.087 8.76233 75.4705 7.37525C76.854 5.98817 78.4966 4.88783 80.3046 4.13711C82.1126 3.38639 84.0505 3 86.0076 3ZM174.398 24.9389V17.9365C174.4 15.5731 173.467 13.3054 171.802 11.6307C170.138 9.95603 167.879 9.01109 165.521 9.00314L86.0076 9.00314C83.6471 9.00911 81.3854 9.95293 79.7184 11.6276C78.0514 13.3023 77.1153 15.5711 77.1153 17.9365V31.9563C77.1422 34.0016 77.8493 35.9793 79.1247 37.5763L104.1 68.8543C107.222 62.4352 112.085 57.0263 118.131 53.2462C124.177 49.4661 131.163 47.4675 138.289 47.4789C138.597 47.4789 138.874 47.4789 139.219 47.4789C139.351 47.4694 139.484 47.4694 139.616 47.4789L165.521 47.4789C166.381 47.473 167.236 47.3492 168.062 47.1107C169.357 46.661 170.549 45.9588 171.571 45.0446C172.463 44.2201 173.174 43.2198 173.66 42.1064C174.147 40.9931 174.398 39.791 174.398 38.5756V25.6752C174.376 25.5688 174.364 25.4607 174.361 25.3521C174.359 25.2135 174.371 25.075 174.398 24.9389Z" fill="#EAEAEA" fill-opacity="0.2"/>
<path d="M148.567 64.3131C155.175 64.3017 161.52 66.9018 166.219 71.5469C170.918 76.1919 173.59 82.5053 173.652 89.1111V89.5839C173.625 94.6232 172.075 99.5366 169.207 103.681C166.338 107.825 162.285 111.006 157.577 112.809C152.869 114.611 147.727 114.95 142.823 113.781C137.919 112.613 133.483 109.991 130.095 106.259C129.977 106.158 129.918 106.074 129.935 106.074L129.791 105.896L129.715 105.803L129.622 105.702L128.195 103.887C128.078 103.786 127.976 103.669 127.891 103.541C125.308 99.7768 123.802 95.3792 123.536 90.8224C123.271 86.2657 124.255 81.723 126.383 77.6847C128.511 73.6463 131.702 70.2657 135.612 67.9076C139.521 65.5496 144.001 64.3038 148.567 64.3047V64.3131ZM135.053 101.708C137.532 104.425 140.771 106.333 144.35 107.184C147.928 108.036 151.68 107.791 155.117 106.483C158.554 105.174 161.518 102.862 163.624 99.8462C165.729 96.8309 166.878 93.2522 166.921 89.5755V89.1786C166.798 84.3808 164.8 79.822 161.354 76.4798C157.908 73.1377 153.29 71.2783 148.489 71.3004C143.687 71.3225 139.086 73.2243 135.671 76.598C132.257 79.9717 130.3 84.5487 130.222 89.3475C130.221 93.0116 131.328 96.5904 133.398 99.6145L134.918 101.523L135.036 101.7L135.053 101.708Z" fill="#EAEAEA" fill-opacity="0.2"/>
<path d="M96.3362 145.673H16.8605C12.9145 145.663 9.13363 144.085 6.34761 141.284C3.56159 138.484 1.998 134.691 2 130.736L2 110.097C2.00268 108.062 2.42269 106.048 3.23394 104.182C4.04519 102.316 5.23039 100.636 6.71607 99.248L6.81354 99.1579C8.35876 97.7742 10.1561 96.7028 12.1069 96.0023L12.3543 95.8971C13.8088 95.4326 15.3264 95.1969 16.853 95.1983H44.0847C50.8451 95.2003 57.4329 93.0597 62.9059 89.0827C68.3788 85.1058 72.4564 79.4963 74.5554 73.0566C74.7199 72.5318 75.025 72.0623 75.4375 71.6993C75.85 71.3363 76.354 71.0937 76.8946 70.9979C76.9744 70.9905 77.0547 70.9905 77.1345 70.9979H77.427C77.877 70.9995 78.3213 71.099 78.7291 71.2897C79.1369 71.4804 79.4985 71.7577 79.7887 72.1024L107.935 107.34C110.072 110.001 111.236 113.315 111.234 116.732V130.736C111.235 132.698 110.851 134.64 110.102 136.452C109.354 138.264 108.257 139.911 106.873 141.298C105.49 142.685 103.847 143.785 102.039 144.536C100.231 145.286 98.2933 145.673 96.3362 145.673ZM7.94568 123.734L7.94568 130.736C7.94368 133.1 8.87715 135.367 10.5413 137.042C12.2055 138.717 14.4645 139.662 16.823 139.67H96.3362C98.6966 139.664 100.958 138.72 102.625 137.045C104.292 135.371 105.228 133.102 105.228 130.736V116.717C105.202 114.671 104.494 112.694 103.219 111.097L78.2442 79.8186C75.1215 86.2377 70.259 91.6466 64.2129 95.4267C58.1668 99.2067 51.181 101.205 44.0547 101.194C43.7472 101.194 43.4698 101.194 43.1249 101.194C42.9927 101.203 42.8599 101.203 42.7276 101.194H16.823C15.9629 101.2 15.1077 101.324 14.2813 101.562C12.9869 102.012 11.7943 102.714 10.7723 103.628C9.88118 104.453 9.16998 105.453 8.68351 106.566C8.19704 107.68 7.94582 108.882 7.94568 110.097L7.94568 122.998C7.96759 123.104 7.98015 123.212 7.98318 123.321C7.98514 123.459 7.97256 123.598 7.94568 123.734Z" fill="#EAEAEA" fill-opacity="0.2"/>
<path d="M33.7729 84.3597C27.1645 84.3711 20.8194 81.771 16.1206 77.126C11.4217 72.4809 8.7499 66.1676 8.6875 59.5618V59.0889C8.71534 54.0497 10.2649 49.1362 13.1333 44.9922C16.0017 40.8481 20.0552 37.6666 24.7629 35.8643C29.4706 34.062 34.613 33.723 39.5167 34.8916C44.4204 36.0601 48.8568 38.6819 52.2448 42.4134C52.363 42.5148 52.4222 42.5992 52.4053 42.5992L52.5489 42.7765L52.6249 42.8694L52.7178 42.9707L54.1452 44.786C54.2619 44.887 54.3642 45.0034 54.4493 45.1322C57.0323 48.8961 58.5379 53.2937 58.8036 57.8504C59.0692 62.4071 58.0849 66.9498 55.9568 70.9882C53.8286 75.0266 50.6376 78.4072 46.728 80.7652C42.8185 83.1232 38.3389 84.369 33.7729 84.3682V84.3597ZM47.2869 46.9644C44.8079 44.2479 41.5686 42.3399 37.9903 41.4884C34.412 40.637 30.6602 40.8815 27.2228 42.1903C23.7854 43.499 20.8214 45.8113 18.7163 48.8266C16.6112 51.8419 15.4623 55.4206 15.4192 59.0974V59.4942C15.5418 64.2921 17.5403 68.8509 20.986 72.193C24.4317 75.5352 29.0503 77.3945 33.8513 77.3725C38.6524 77.3504 43.2537 75.4485 46.6684 72.0748C50.0832 68.7011 52.0396 64.1241 52.1181 59.3254C52.1188 55.6613 51.0118 52.0825 48.9423 49.0583L47.422 47.1501L47.3038 46.9728L47.2869 46.9644Z" fill="#EAEAEA" fill-opacity="0.2"/>
<path d="M277.722 159.049H357.198C361.144 159.059 364.925 160.637 367.711 163.437C370.497 166.238 372.061 170.031 372.059 173.985V194.624C372.056 196.66 371.636 198.673 370.825 200.54C370.013 202.406 368.828 204.085 367.343 205.474L367.245 205.564C365.7 206.947 363.902 208.019 361.952 208.719L361.704 208.825C360.25 209.289 358.732 209.525 357.206 209.523H329.974C323.214 209.521 316.626 211.662 311.153 215.639C305.68 219.616 301.602 225.225 299.503 231.665C299.339 232.19 299.034 232.659 298.621 233.022C298.209 233.385 297.705 233.628 297.164 233.724C297.084 233.731 297.004 233.731 296.924 233.724H296.632C296.182 233.722 295.737 233.623 295.329 233.432C294.922 233.241 294.56 232.964 294.27 232.619L266.123 197.382C263.986 194.72 262.822 191.406 262.824 187.99V173.985C262.823 172.024 263.208 170.082 263.956 168.27C264.705 166.458 265.802 164.811 267.185 163.424C268.569 162.037 270.211 160.937 272.019 160.186C273.827 159.435 275.765 159.049 277.722 159.049ZM366.113 180.988V173.985C366.115 171.622 365.181 169.354 363.517 167.68C361.853 166.005 359.594 165.06 357.236 165.052H277.722C275.362 165.058 273.1 166.002 271.433 167.676C269.766 169.351 268.83 171.62 268.83 173.985V188.005C268.857 190.05 269.564 192.028 270.84 193.625L295.814 224.903C298.937 218.484 303.8 213.075 309.846 209.295C315.892 205.515 322.878 203.516 330.004 203.528C330.311 203.528 330.589 203.528 330.934 203.528C331.066 203.518 331.199 203.518 331.331 203.528H357.236C358.096 203.522 358.951 203.398 359.777 203.16C361.072 202.71 362.264 202.008 363.286 201.093C364.177 200.269 364.889 199.269 365.375 198.155C365.862 197.042 366.113 195.84 366.113 194.624V181.724C366.091 181.618 366.078 181.51 366.075 181.401C366.073 181.262 366.086 181.124 366.113 180.988Z" fill="#EAEAEA" fill-opacity="0.2"/>
<path d="M225.492 240.409C218.883 240.42 212.538 237.82 207.839 233.175C203.14 228.53 200.469 222.216 200.406 215.611V215.138C200.434 210.098 201.984 205.185 204.852 201.041C207.72 196.897 211.774 193.715 216.482 191.913C221.189 190.111 226.332 189.772 231.235 190.94C236.139 192.109 240.576 194.731 243.964 198.462C244.082 198.564 244.141 198.648 244.124 198.648L244.268 198.825L244.344 198.918L244.437 199.02L245.864 200.835C245.981 200.936 246.083 201.052 246.168 201.181C248.751 204.945 250.257 209.343 250.522 213.899C250.788 218.456 249.804 222.999 247.676 227.037C245.547 231.075 242.356 234.456 238.447 236.814C234.537 239.172 230.058 240.418 225.492 240.417V240.409ZM239.006 203.013C236.527 200.297 233.287 198.389 229.709 197.537C226.131 196.686 222.379 196.93 218.942 198.239C215.504 199.548 212.54 201.86 210.435 204.875C208.33 207.891 207.181 211.469 207.138 215.146V215.543C207.261 220.341 209.259 224.9 212.705 228.242C216.15 231.584 220.769 233.443 225.57 233.421C230.371 233.399 234.972 231.497 238.387 228.124C241.802 224.75 243.758 220.173 243.837 215.374C243.838 211.71 242.731 208.131 240.661 205.107L239.141 203.199L239.023 203.022L239.006 203.013Z" fill="#EAEAEA" fill-opacity="0.2"/>
<path d="M86.0076 159.049H165.483C169.429 159.059 173.21 160.637 175.996 163.437C178.782 166.238 180.346 170.031 180.344 173.985V194.624C180.341 196.66 179.921 198.673 179.11 200.54C178.299 202.406 177.113 204.085 175.628 205.474L175.53 205.564C173.985 206.947 172.188 208.019 170.237 208.719L169.989 208.825C168.535 209.289 167.017 209.525 165.491 209.523H138.259C131.499 209.521 124.911 211.662 119.438 215.639C113.965 219.616 109.887 225.225 107.788 231.665C107.624 232.19 107.319 232.659 106.906 233.022C106.494 233.385 105.99 233.628 105.449 233.724C105.369 233.731 105.289 233.731 105.209 233.724H104.917C104.467 233.722 104.022 233.623 103.615 233.432C103.207 233.241 102.845 232.964 102.555 232.619L74.4086 197.382C72.2716 194.72 71.1075 191.406 71.1096 187.99V173.985C71.1086 172.024 71.4932 170.082 72.2415 168.27C72.9897 166.458 74.087 164.811 75.4705 163.424C76.854 162.037 78.4966 160.937 80.3046 160.186C82.1126 159.435 84.0505 159.049 86.0076 159.049ZM174.398 180.988V173.985C174.4 171.622 173.467 169.354 171.802 167.68C170.138 166.005 167.879 165.06 165.521 165.052H86.0076C83.6471 165.058 81.3854 166.002 79.7184 167.676C78.0514 169.351 77.1153 171.62 77.1153 173.985V188.005C77.1422 190.05 77.8493 192.028 79.1247 193.625L104.1 224.903C107.222 218.484 112.085 213.075 118.131 209.295C124.177 205.515 131.163 203.516 138.289 203.528C138.597 203.528 138.874 203.528 139.219 203.528C139.351 203.518 139.484 203.518 139.616 203.528H165.521C166.381 203.522 167.236 203.398 168.062 203.16C169.357 202.71 170.549 202.008 171.571 201.093C172.463 200.269 173.174 199.269 173.66 198.155C174.147 197.042 174.398 195.84 174.398 194.624V181.724C174.376 181.618 174.364 181.51 174.361 181.401C174.359 181.262 174.371 181.124 174.398 180.988Z" fill="#EAEAEA" fill-opacity="0.2"/>
<path d="M33.7729 240.409C27.1645 240.42 20.8194 237.82 16.1206 233.175C11.4217 228.53 8.7499 222.216 8.6875 215.611V215.138C8.71534 210.098 10.2649 205.185 13.1333 201.041C16.0017 196.897 20.0552 193.715 24.7629 191.913C29.4706 190.111 34.613 189.772 39.5167 190.94C44.4204 192.109 48.8568 194.731 52.2448 198.462C52.363 198.564 52.4222 198.648 52.4053 198.648L52.5489 198.825L52.6249 198.918L52.7178 199.02L54.1452 200.835C54.2619 200.936 54.3642 201.052 54.4493 201.181C57.0323 204.945 58.5379 209.343 58.8036 213.899C59.0692 218.456 58.0849 222.999 55.9568 227.037C53.8286 231.075 50.6376 234.456 46.728 236.814C42.8185 239.172 38.3389 240.418 33.7729 240.417V240.409ZM47.2869 203.013C44.8079 200.297 41.5686 198.389 37.9903 197.537C34.412 196.686 30.6602 196.93 27.2228 198.239C23.7854 199.548 20.8214 201.86 18.7163 204.875C16.6112 207.891 15.4623 211.469 15.4192 215.146V215.543C15.5418 220.341 17.5403 224.9 20.986 228.242C24.4317 231.584 29.0503 233.443 33.8513 233.421C38.6524 233.399 43.2537 231.497 46.6684 228.124C50.0832 224.75 52.0396 220.173 52.1181 215.374C52.1188 211.71 51.0118 208.131 48.9423 205.107L47.422 203.199L47.3038 203.022L47.2869 203.013Z" fill="#EAEAEA" fill-opacity="0.2"/>
</g>
<defs>
<clipPath id="clip0">
<rect width="372" height="218" fill="white"/>
</clipPath>
</defs>
</svg>

<svg width="372" height="218" fill="none" xmlns="http://www.w3.org/2000/svg"><g clip-path="url(#clip0)" fill="#EAEAEA" fill-opacity=".2"><path d="M288.055 145.673h-79.476a14.88 14.88 0 01-10.513-4.389 14.943 14.943 0 01-4.347-10.548v-20.639a14.863 14.863 0 014.716-10.849l.097-.09a16.09 16.09 0 015.294-3.156l.247-.105c1.455-.464 2.972-.7 4.499-.699h27.231a32 32 0 0018.822-6.115 32.107 32.107 0 0011.649-16.026 3.002 3.002 0 012.339-2.059 1.3 1.3 0 01.24 0h.293a3.1 3.1 0 012.361 1.104l28.147 35.238a14.985 14.985 0 013.299 9.392v14.004a14.96 14.96 0 01-4.361 10.562 14.895 14.895 0 01-10.537 4.375zm-88.391-21.939v7.002a8.936 8.936 0 002.596 6.306 8.897 8.897 0 006.282 2.628h79.513a8.905 8.905 0 006.289-2.625 8.94 8.94 0 002.603-6.309v-14.019a9.201 9.201 0 00-2.009-5.62l-24.975-31.278a38.023 38.023 0 01-14.031 15.608 37.914 37.914 0 01-20.159 5.767h-.929a2.937 2.937 0 01-.398 0h-25.904c-.86.006-1.716.13-2.542.368a10.377 10.377 0 00-3.509 2.066 8.824 8.824 0 00-2.827 6.469v12.901c.022.106.035.214.038.323.002.138-.011.277-.038.413zm25.828-39.374a25.049 25.049 0 01-17.653-7.234 25.032 25.032 0 01-7.433-17.564v-.473a25.016 25.016 0 0116.076-23.225 25.032 25.032 0 0127.482 6.55c.118.1.177.185.16.185l.144.178.076.092.093.102 1.427 1.815c.117.101.219.217.304.346a25.047 25.047 0 011.508 25.856 25.074 25.074 0 01-22.184 13.38v-.008zm13.514-37.396a18.333 18.333 0 00-28.571 1.863 18.317 18.317 0 00-3.297 10.27v.397a18.355 18.355 0 0036.699-.169 18.168 18.168 0 00-3.176-10.267l-1.52-1.908-.118-.177-.017-.009zM86.008 3h79.475a14.883 14.883 0 0110.513 4.389 14.945 14.945 0 014.348 10.547v20.64a14.866 14.866 0 01-4.716 10.85l-.098.089a16.078 16.078 0 01-5.293 3.156l-.248.105c-1.454.464-2.972.7-4.498.698h-27.232a32.001 32.001 0 00-18.821 6.116 32.109 32.109 0 00-11.65 16.026 2.997 2.997 0 01-2.339 2.059 1.3 1.3 0 01-.24 0h-.292a3.095 3.095 0 01-2.362-1.105L74.409 41.333a14.987 14.987 0 01-3.3-9.392V17.936a14.955 14.955 0 014.362-10.56A14.896 14.896 0 0186.008 3zm88.39 21.939v-7.003a8.932 8.932 0 00-2.596-6.305 8.897 8.897 0 00-6.281-2.628H86.008a8.906 8.906 0 00-6.29 2.625 8.943 8.943 0 00-2.603 6.308v14.02a9.2 9.2 0 002.01 5.62L104.1 68.854a38.016 38.016 0 0114.031-15.608 37.91 37.91 0 0120.158-5.767h.93c.132-.01.265-.01.397 0h25.905a9.392 9.392 0 002.541-.368 10.36 10.36 0 003.509-2.066 8.81 8.81 0 002.827-6.469v-12.9a1.847 1.847 0 010-.737zm-25.831 39.374a25.048 25.048 0 0117.652 7.234 25.028 25.028 0 017.433 17.564v.473a25.01 25.01 0 01-16.075 23.225 25.034 25.034 0 01-27.482-6.55c-.118-.101-.177-.185-.16-.185l-.144-.178-.076-.093-.093-.101-1.427-1.815a1.697 1.697 0 01-.304-.346 25.06 25.06 0 01-4.355-12.719 25.06 25.06 0 0125.031-26.517v.008zm-13.514 37.395a18.334 18.334 0 0028.571-1.862 18.317 18.317 0 003.297-10.27v-.397a18.345 18.345 0 00-5.567-12.7 18.357 18.357 0 00-25.683.119 18.345 18.345 0 00-5.449 12.75 18.167 18.167 0 003.176 10.267l1.52 1.908.118.177.017.008zm-38.717 43.965H16.861a14.88 14.88 0 01-10.513-4.389A14.943 14.943 0 012 130.736v-20.639a14.888 14.888 0 014.716-10.849l.098-.09a16.082 16.082 0 015.293-3.156l.247-.105c1.455-.464 2.972-.7 4.499-.699h27.232a32 32 0 0018.82-6.115 32.108 32.108 0 0011.65-16.026 3.005 3.005 0 012.34-2.06c.08-.007.16-.007.24 0h.292a3.1 3.1 0 012.362 1.105l28.146 35.238a14.985 14.985 0 013.299 9.392v14.004a14.941 14.941 0 01-4.361 10.562 14.895 14.895 0 01-10.537 4.375zm-88.39-21.939v7.002a8.935 8.935 0 002.595 6.306 8.897 8.897 0 006.282 2.628h79.513a8.904 8.904 0 006.289-2.625 8.94 8.94 0 002.603-6.309v-14.019a9.195 9.195 0 00-2.009-5.62L78.244 79.819a38.02 38.02 0 01-14.031 15.608 37.914 37.914 0 01-20.158 5.767h-.93a2.926 2.926 0 01-.397 0H16.823c-.86.006-1.715.13-2.542.368a10.373 10.373 0 00-3.509 2.066 8.814 8.814 0 00-2.826 6.469v12.901a1.849 1.849 0 010 .736zM33.773 84.36a25.048 25.048 0 01-17.652-7.234 25.03 25.03 0 01-7.433-17.564v-.473a25.011 25.011 0 0116.075-23.225 25.034 25.034 0 0127.482 6.55c.118.1.177.185.16.185l.144.178.076.092.093.102 1.427 1.815c.117.101.22.217.304.346a25.054 25.054 0 01-7.721 35.633 25.075 25.075 0 01-12.955 3.603v-.008zm13.514-37.396a18.33 18.33 0 00-31.868 12.133v.397a18.344 18.344 0 005.567 12.699 18.357 18.357 0 0025.682-.118 18.344 18.344 0 005.45-12.75c0-3.664-1.106-7.242-3.176-10.267l-1.52-1.908-.118-.177-.017-.009zm230.435 112.085h79.476a14.884 14.884 0 0110.513 4.388 14.947 14.947 0 014.348 10.548v20.639a14.891 14.891 0 01-4.716 10.85l-.098.09a16.088 16.088 0 01-5.293 3.155l-.248.106c-1.454.464-2.972.7-4.498.698h-27.232a32 32 0 00-18.821 6.116 32.107 32.107 0 00-11.65 16.026 2.995 2.995 0 01-2.339 2.059c-.08.007-.16.007-.24 0h-.292a3.106 3.106 0 01-2.362-1.105l-28.147-35.237a14.99 14.99 0 01-3.299-9.392v-14.005a14.959 14.959 0 014.361-10.561 14.866 14.866 0 0110.537-4.375zm88.391 21.939v-7.003a8.934 8.934 0 00-2.596-6.305 8.896 8.896 0 00-6.281-2.628h-79.514a8.908 8.908 0 00-6.289 2.624 8.944 8.944 0 00-2.603 6.309v14.02a9.198 9.198 0 002.01 5.62l24.974 31.278a38.025 38.025 0 0114.032-15.608 37.904 37.904 0 0120.158-5.767h.93c.132-.01.265-.01.397 0h25.905a9.415 9.415 0 002.541-.368 10.354 10.354 0 003.509-2.067 8.807 8.807 0 002.827-6.469v-12.9a1.838 1.838 0 01-.038-.323 1.972 1.972 0 01.038-.413zm-140.621 59.421a25.05 25.05 0 01-17.653-7.234 25.033 25.033 0 01-7.433-17.564v-.473a25.015 25.015 0 0116.076-23.225 25.039 25.039 0 0127.482 6.549c.118.102.177.186.16.186l.144.177.076.093.093.102 1.427 1.815c.117.101.219.217.304.346a25.05 25.05 0 011.508 25.856 25.077 25.077 0 01-22.184 13.38v-.008zm13.514-37.396a18.34 18.34 0 00-20.064-4.774 18.319 18.319 0 00-11.804 16.907v.397a18.344 18.344 0 005.567 12.699 18.356 18.356 0 0031.132-12.868 18.167 18.167 0 00-3.176-10.267l-1.52-1.908-.118-.177-.017-.009zM86.008 159.049h79.475a14.884 14.884 0 0110.513 4.388 14.947 14.947 0 014.348 10.548v20.639a14.877 14.877 0 01-4.716 10.85l-.098.09a16.078 16.078 0 01-5.293 3.155l-.248.106c-1.454.464-2.972.7-4.498.698h-27.232a32 32 0 00-18.821 6.116 32.107 32.107 0 00-11.65 16.026 2.995 2.995 0 01-2.339 2.059c-.08.007-.16.007-.24 0h-.292a3.098 3.098 0 01-2.362-1.105l-28.146-35.237a14.989 14.989 0 01-3.3-9.392v-14.005a14.953 14.953 0 014.362-10.561 14.866 14.866 0 0110.537-4.375zm88.39 21.939v-7.003a8.93 8.93 0 00-2.596-6.305 8.896 8.896 0 00-6.281-2.628H86.008a8.908 8.908 0 00-6.29 2.624 8.944 8.944 0 00-2.603 6.309v14.02a9.2 9.2 0 002.01 5.62l24.975 31.278a38.016 38.016 0 0114.031-15.608 37.904 37.904 0 0120.158-5.767h.93c.132-.01.265-.01.397 0h25.905a9.415 9.415 0 002.541-.368 10.354 10.354 0 003.509-2.067 8.807 8.807 0 002.827-6.469v-12.9a1.837 1.837 0 010-.736zM33.773 240.409a25.05 25.05 0 01-17.652-7.234 25.03 25.03 0 01-7.433-17.564v-.473a25.024 25.024 0 0116.075-23.225 25.035 25.035 0 0127.482 6.549c.118.102.177.186.16.186l.144.177.076.093.093.102 1.427 1.815c.117.101.22.217.304.346a25.056 25.056 0 01-20.676 39.236v-.008zm13.514-37.396a18.337 18.337 0 00-20.064-4.774 18.319 18.319 0 00-11.804 16.907v.397a18.344 18.344 0 005.567 12.699 18.358 18.358 0 0025.682-.118 18.345 18.345 0 005.45-12.75c0-3.664-1.106-7.243-3.176-10.267l-1.52-1.908-.118-.177-.017-.009z"/></g><defs><clipPath id="clip0"><path fill="#fff" d="M0 0h372v218H0z"/></clipPath></defs></svg>
